svg/hiv_pos_outline.svg

<?xml version="1.0" encoding="UTF-8" standalone="no"?>
<!-- Created with Inkscape (http://www.inkscape.org/) -->
<svg id="svg8" xmlns:rdf="http://www.w3.org/1999/02/22-rdf-syntax-ns#" xmlns="http://www.w3.org/2000/svg" xmlns:osb="http://www.openswatchbook.org/uri/2009/osb" height="48" width="48" version="1.1" xmlns:cc="http://creativecommons.org/ns#" viewBox="0 0 12.7 12.7" xmlns:dc="http://purl.org/dc/elements/1.1/">
 <title id="title4753">UIO-icon</title>
 <metadata id="metadata5">
  <rdf:RDF>
   <cc:Work rdf:about="">
    <dc:format>image/svg+xml</dc:format>
    <dc:type rdf:resource="http://purl.org/dc/dcmitype/StillImage"/>
    <dc:title>UIO-icon</dc:title>
    <dc:creator>
     <cc:Agent>
      <dc:title>Joaquín Urbano</dc:title>
     </cc:Agent>
    </dc:creator>
    <dc:rights>
     <cc:Agent>
      <dc:title>GPL</dc:title>
     </cc:Agent>
    </dc:rights>
   </cc:Work>
  </rdf:RDF>
 </metadata>
 <g id="layer1" transform="translate(0,-284.3)">
  <path id="path5786" d="m23.393 3.459c-6.8866 0.0080992-8.0731 3.1106-8.0332 12.484 0.10298 0.80265-0.10726 2.19 1.0703 2.1699-0.000605 0.082031-0.00139 0.16406-0.001953 0.24609-3e-8 2.0737 0.79629 4.1216 2.3594 5.0996 1.7384 1.0877 3.3495 2.2264 4.6094 2.2227 1.8397-0.057399 2.8768-0.9226 4.9668-2.2383 1.3991-0.9437 1.9612-2.5772 1.9922-5.4316 1.118-0.2481 1.1318-1.5249 1.1406-2.0684 0.059-8.3689-1.034-12.466-8.074-12.485-0.009461 0.000002646-0.017431-0.000054047-0.027344 0zm0.253 0.5176c1.8746 0.026747 2.5268 0.3505 3.4922 0.59766 1.0259 0.36475 1.9438 1.0716 2.6465 2.4648 0.48773 1.3195 0.85314 2.5252 0.95898 3.4922l0.21289 2.7891 0.027344 2.7441c-0.049945 1.1847-0.34254 1.2777-0.62109 1.4336l-0.004-2.084c-0.09073-0.75926-0.090548-1.4361-0.48633-2.4727-0.5546-1.6343-1.6821-1.988-2.8438-2.2637-0.88599-0.10988-1.8212-0.15965-2.3965-0.63672-0.62215-0.55395-0.61574-1.714-0.66797-2.6387-2.4012 2.4304-4.4031 4.8217-6.3848 3.5957l-0.29492-0.12695c-0.38115-0.32228-0.6302-0.21224-0.7168 0.4375-0.039167 0.91391-0.07802 1.7843-0.11719 2.6719l-0.015625 3.6191c-0.36802 0.022941-0.6097-0.35893-0.5625-1.6543l0.039062-2.9062c0.019404-0.58607 0.043039-1.1737 0.10352-1.7598 0.077927-0.96218 0.2302-1.9051 0.42578-2.8379 0.22929-0.73005 0.60928-2.7001 2.6914-3.7422 1.0504-0.50787 2.4633-0.803 4.5137-0.72266zm-0.11328 4.5918c0.47587 4.7418 5.5877-0.097491 6.3125 6.5234l0.007813 2.9883c0.004999 1.885-0.32517 4.0321-1.6602 4.873-1.89 1.19-3.1723 2.1653-4.8359 2.2129-1.1393 0.0037-2.7933-1.2097-4.3652-2.1934-1.4135-0.88419-2.0469-3.0407-2.0469-4.916-0.033117-2.2761-0.001796-4.4788 0.13672-6.7168 2.5587 1.3024 4.1912-0.50161 6.4512-2.7715zm-3.1016 5.8574c-0.43895 0.00010998-0.79482 0.35594-0.79492 0.79492 0.00010003 0.43888 0.35595 0.79481 0.79492 0.79492 0.43899-0.00010998 0.79483-0.35598 0.79492-0.79492-0.00009004-0.43891-0.35595-0.79481-0.79492-0.79492zm5.9688 0c-0.43895 0.00010998-0.79482 0.35594-0.79492 0.79492 0.00010005 0.43888 0.35595 0.79481 0.79492 0.79492 0.43895-0.00010998 0.79482-0.35598 0.79492-0.79492-0.00010002-0.43891-0.35595-0.79481-0.79492-0.79492zm-2.9844 3.668c-0.39814 0-0.72 0.066422-0.7168 0.14844 0.00203 0.080874 0.32239 0.14652 0.7168 0.14648 0.39441 0.0003817 0.7148-0.065602 0.7168-0.14648 0.00402-0.077858-0.28788-0.14466-0.66602-0.14844-0.016779-0.00011339-0.033773-0.00011339-0.050781 0zm0.22852 2.8945c-0.064879-0.00065424-0.13047 0.004555-0.19531 0.003906-1.4516 0.024038-2.574 0.083598-2.5605 0.13672 0.01927 0.055038 1.2494 0.081523 2.7578 0.060547 1.4968-0.020939 2.7051-0.081994 2.7402-0.13672-0.008956-0.055245-1.2257-0.084791-2.7422-0.064453zm2.7422 0.064453c0.00006839 0.00038964 0.011771 0.001541 0.011719 0.001953v-0.001953c-0.00012754 0.00040287-0.011277-0.00047698-0.011719 0zm-14.631 4.901c-0.78497-0.007975-1.5875 0.076554-2.4141 0.26562 0.31283 1.3219 0.69237 1.9182 1.1816 2.793 0.61899-0.19423 1.6388-0.31552 2.2578-0.025391 0.67055-1.0094 0.99868-1.9107 1.2773-2.7695-0.752-0.162-1.518-0.257-2.303-0.264zm-2.6915 0.539-0.4942 1.487c-0.38601 1.1622-0.50099 1.6361-0.5332 2.1738-0.047633 0.79486-0.073125 0.73049 0.81641 2.0938 0.35767 0.54819 0.67045 0.9971 0.69531 0.99805 0.054832 0.001993 1.6973-2.3436 1.6973-2.4238 0-0.03171-0.3288-0.56776-0.72852-1.1934-0.8262-1.2931-1.2831-2.2086-1.3828-2.7578zm5.293 0-0.076172 0.4043c-0.093804 0.49278-0.60129 1.5092-1.3379 2.6816-2.8564 4.1757-5.1203 7.3397-8.1699 11.654 0.6182 0.87037 1.2805 1.8221 1.9688 2.5781 3.0133-5.0516 6.0914-7.9238 8.6328-12.975 0.11123-0.59251-0.017018-1.2848-0.51758-2.8145zm3.6328 3.918v6.4043h1.3203v-2.744h2.5762v2.7441h1.3203v-6.4043h-1.3203v2.5938h-2.5762v-2.5938zm6.459 0v6.4043h1.3203v-6.4043zm2 0 2.2227 6.4043h1.377l2.231-6.404h-1.4707l-1.4531 4.8164-1.4434-4.8164zm12.877 0v2.541h-2.543v1.3203h2.543v2.543h1.3203v-2.543h2.541v-1.3203h-2.542v-2.541zm-25.436 4.108-0.823 1.212c-0.45245 0.66671-0.8393 1.2698-0.85938 1.3398-0.020152 0.070163 0.34282 0.67985 0.80469 1.3574 1.3047 1.8883 2.3847 3.5783 3.7168 5.4395 0.7009-0.90628 1.1986-1.6249 1.916-2.625-1.585-2.242-3.17-4.483-4.755-6.724z" transform="matrix(.26458 0 0 .26458 0 284.3)" stroke-width="3.7795" fill="#333"/>
  <g id="layer1-3" fill="#800000"></g>
 </g>
</svg>

<svg width="48" height="48" viewBox="0 0 48 48" fill="none" xmlns="http://www.w3.org/2000/svg">
<path d="M23.3927 3.45904C16.5062 3.46714 15.3197 6.5696 15.3596 15.9429C15.4626 16.7455 15.2523 18.1329 16.4299 18.1128C16.4293 18.1948 16.4285 18.2768 16.4279 18.3588C16.4279 20.4325 17.2242 22.4804 18.7873 23.4584C20.5257 24.5461 22.1368 25.6848 23.3967 25.6811C25.2363 25.6237 26.2734 24.7585 28.3634 23.4428C29.7625 22.4991 30.3246 20.8656 30.3556 18.0112C31.4736 17.7632 31.4873 16.4864 31.4962 15.9429C31.5551 7.57408 30.4622 3.47703 23.4222 3.45803C23.4128 3.45803 23.4048 3.45798 23.3949 3.45803L23.3927 3.45904ZM23.6457 3.97663C25.5203 4.00338 26.1725 4.32713 27.1379 4.57429C28.1637 4.93903 29.0816 5.64587 29.7843 7.03906C30.272 8.35854 30.6375 9.56422 30.7433 10.5312L30.9562 13.3203L30.9835 16.0643C30.9336 17.249 30.641 17.342 30.3624 17.4979L30.3584 15.414C30.2677 14.6547 30.2679 13.9779 29.8721 12.9413C29.3175 11.307 28.19 10.9533 27.0284 10.6776C26.1424 10.5677 25.2072 10.518 24.6319 10.0409C24.0097 9.48696 24.0161 8.32692 23.9639 7.40223C21.5628 9.8326 19.5609 12.2239 17.5792 10.9979L17.2843 10.8709C16.9031 10.5487 16.6541 10.6587 16.5675 11.3084C16.5283 12.2223 16.4895 13.0927 16.4503 13.9803L16.4347 17.5994C16.0667 17.6223 15.825 17.2404 15.8722 15.9451L15.9112 13.0389C15.9307 12.4528 15.9543 11.8652 16.0148 11.2791C16.0927 10.317 16.245 9.37406 16.4405 8.44127C16.6698 7.71123 17.0498 5.7412 19.1319 4.69912C20.1823 4.19125 21.5952 3.89613 23.6456 3.97646L23.6457 3.97663ZM23.5324 8.56838C24.0083 13.3101 29.1201 8.47089 29.8448 15.0917L29.8527 18.08C29.8577 19.9649 29.5275 22.112 28.1925 22.9529C26.3025 24.1429 25.0202 25.1182 23.3566 25.1658C22.2174 25.1695 20.5634 23.9561 18.9915 22.9724C17.578 22.0882 16.9446 19.9317 16.9446 18.0565C16.9115 15.7804 16.9428 13.5777 17.0813 11.3397C19.64 12.6421 21.2725 10.8381 23.5325 8.56828L23.5324 8.56838ZM20.4309 14.4257C19.9919 14.4258 19.6361 14.7816 19.636 15.2206C19.6361 15.6595 19.9919 16.0154 20.4309 16.0155C20.8698 16.0154 21.2257 15.6595 21.2258 15.2206C21.2257 14.7817 20.8698 14.4258 20.4309 14.4257ZM26.3996 14.4257C25.9606 14.4258 25.6048 14.7816 25.6047 15.2206C25.6048 15.6595 25.9606 16.0154 26.3996 16.0155C26.8385 16.0154 27.1944 15.6595 27.1945 15.2206C27.1944 14.7817 26.8385 14.4258 26.3996 14.4257ZM23.4152 18.0937C23.0171 18.0937 22.6952 18.1601 22.6984 18.2421C22.7005 18.323 23.0208 18.3886 23.4152 18.3886C23.8096 18.389 24.13 18.323 24.132 18.2421C24.136 18.1642 23.8441 18.0974 23.466 18.0937C23.4492 18.0935 23.4322 18.0935 23.4152 18.0937ZM23.6437 20.9881C23.5789 20.9875 23.5133 20.9927 23.4484 20.992C21.9969 21.0161 20.8745 21.0756 20.888 21.1287C20.9072 21.1838 22.1374 21.2103 23.6457 21.1893C25.1425 21.1684 26.3508 21.1073 26.3859 21.0526C26.3769 20.9973 25.1602 20.9678 23.6437 20.9881ZM26.3859 21.0526C26.386 21.053 26.3977 21.0541 26.3976 21.0545V21.0526C26.3975 21.053 26.3863 21.0521 26.3859 21.0526ZM11.7551 25.9535C10.9701 25.9455 10.1676 26.0301 9.34101 26.2191C9.65384 27.541 10.0334 28.1373 10.5226 29.0121C11.1416 28.8179 12.1614 28.6966 12.7804 28.9867C13.4509 27.9773 13.779 27.076 14.0577 26.2172C13.3057 26.0552 12.5397 25.9602 11.7547 25.9532L11.7551 25.9535ZM9.06361 26.4925L8.56943 27.9795C8.18342 29.1417 8.06844 29.6156 8.03623 30.1533C7.98859 30.9481 7.96311 30.8837 8.85264 32.247C9.2103 32.7952 9.52308 33.2441 9.54794 33.2451C9.60277 33.2471 11.2452 30.9015 11.2452 30.8213C11.2452 30.7896 10.9164 30.2535 10.5167 29.6279C9.69052 28.3348 9.23361 27.4193 9.13391 26.8702L9.06361 26.4925ZM14.3566 26.4925L14.2804 26.8968C14.1866 27.3896 13.6791 28.406 12.9425 29.5784C10.0861 33.754 7.82227 36.918 4.77271 41.2322C5.3909 42.1026 6.05319 43.0543 6.74148 43.8103C9.75473 38.7587 12.8328 35.8866 15.3742 30.8355C15.4854 30.2429 15.3572 29.5507 14.8566 28.021L14.3566 26.4925ZM17.9893 30.4105V36.8147H19.3096V34.0707H21.8858V36.8148H23.206V30.4106H21.8858V33.0043H19.3096V30.4106L17.9893 30.4105ZM24.4482 30.4105V36.8147H25.7685V30.4105H24.4482ZM26.4482 30.4105L28.6709 36.8147H30.0479L32.2788 30.4108H30.8082L29.3551 35.2271L27.9117 30.4108L26.4482 30.4105ZM39.325 30.4105V32.9514H36.7821V34.2717H39.325V36.8147H40.6453V34.2717H43.1863V32.9514H40.6443V30.4105H39.325ZM13.8894 34.5184L13.0664 35.7304C12.6139 36.3971 12.2271 37.0002 12.207 37.0702C12.1869 37.1403 12.5498 37.75 13.0117 38.4276C14.3164 40.3158 15.3964 42.0058 16.7284 43.867C17.4293 42.9607 17.927 42.2421 18.6444 41.242C17.0594 39.0001 15.4745 36.7591 13.8895 34.5181L13.8894 34.5184Z" fill="#333333"/>
</svg>
